X: 7955
T: Condon's Frolics
R: jig
M: 6/8
K: Adorian
|:eAB c/c/cd|edc BAG|eAB c/c/cd|eed eag|
eAB c2d|gdc BAB|GB/c/d gdB|1 ~A3 A z e:|2 ~A3 A z2||
eaa egg|dec BAG|cBc dcd|eed ee/f/g|
eaa egg|dec BAB|GB/c/d gdB|~A3 A2 z|
eaa egg|dec BAG|cGE dGE|eed ee/f/g|
eaa egg|dec BAB|GB/c/d gdB|~A3 A z e||

